X: 19053
T: Iona Theme
R: waltz
M: 3/4
K: Ddorian
B4 B2|B4 G2|A4 d2|ED- D4|A4 A2|A4 A2|e3 d c2|B4 z2|
B4 B2|B4 G2|A4 d2|ED- D4|E4 D2|E2 G4|A4 B2|e4 d2|
d3 ecA|d3 GFA|D6-|D6|d3 ecA|d3 GFA|D6-|D6||

